images/Ecosystem/mullvad.svg

<svg xmlns="http://www.w3.org/2000/svg" width="253" height="253" fill="none" xmlns:v="https://vecta.io/nano"><g fill-rule="evenodd"><path d="M0 126.3c0 69.8 56.6 126.3 126.3 126.3s126.3-56.5 126.3-126.3S196.1 0 126.3 0 0 56.5 0 126.3z" fill="#192e45"/><path d="M16.9 111.2l9.6-13.4c0 .1-.6 19.3-.6 19.3l2.7-14.5c8 16.2 27.6 38.6 45.5 50.6 1.9 1.3 3.5 2.7 4.6 4.1 2.3.9 4.6 1.4 6.9 1.8 1.2.2 2.5.3 3.7.4s2.5.1 3.7.1 2.4-.1 3.6-.2 2.4-.3 3.6-.5 2.4-.4 3.5-.8a45.95 45.95 0 0 0 3.5-1c1.1-.3 2.3-.8 3.4-1.2 1.1-.5 2.2-.9 3.3-1.5s2.2-1.1 3.2-1.7c1.1-.5 2.1-1.2 3.2-1.8s2.1-1.3 3.2-1.9 2.1-1.3 3.1-1.9c1-.7 2.1-1.3 3.1-2s2.1-1.3 3.2-2l1-.6.5.3 7.2 4.8-7.3-1.9c-.7.8-1.4 1.6-2.2 2.4-.9.9-1.9 1.8-2.8 2.7-1 .8-2 1.7-3.1 2.4-1.1.8-2.1 1.5-3.3 2.2-2.2 1.4-4.6 2.6-7.1 3.6-1.2.5-2.5 1-3.7 1.4-1.3.4-2.5.8-3.8 1.1s-2.6.6-3.9.8-2.6.3-3.9.5c-2.6.1-5.3.1-7.9-.3-1.3-.2-2.6-.4-3.9-.7s-2.5-.7-3.7-1.1c-2.1-.8-4.2-1.8-6.1-3 0 0-6.9 1-4.1 6.2s7 4.7 5 10.8c-1.4 3.3-3.4 6.5-5.6 9.5-4.6 6.2-11.8 11.7-11.1 15 32.7 40.3 106.4 34.7 134.4-1.3-.4-5.2-8.6-7.7-14.3-20.4 1.6.5 4 1.2 4 1.1s-6.8-11.1-7.1-12.2l4.4.3s-5.8-7.2-6-7.9l5.9-.8s-7.4-8.5-7.5-9.2l7.5 1.2-8.2-9.9h3.9l-4.6-6.7c-.8-.3-1.6-.5-2.4-.7l-3-.9c-11.2-3.5-21.8-6.7-32-13.1-14.3-8.9-27.1-19.8-36.7-28.3L82.1 81c-18.5-1.4-35.9-.9-46.5 1.2l6.8-11.6L32 83.1c-.7-.2-.9-.6-.9-.6l.7-15.4L28.5 81c-1-.5-2.2-.7-3.4-.7a8.28 8.28 0 0 0-8.3 8.3c0 4.2 3.1 7.7 7.2 8.2l-7.1 14.4z" fill="#d0933a"/><path d="M28.5 80.8c-1-.4-2.2-.7-3.3-.7a8.28 8.28 0 0 0-8.3 8.3c0 4 2.9 7.4 6.7 8.2h.2c2.5-.8 7.5-7.5 6.7-11.7-.3-1.5-1-2.9-2-4.1z" fill="#ffcc86"/><path d="M101.4 70.1c-1.5-4.1-1.1-9.4 1-14.4 3-6.9 8.7-11.5 14.1-11.5a8.15 8.15 0 0 1 3.1.6c3.1-2.8 6.7-5.1 10.7-6.7 22.1-8.8 54.4 6.9 62.7 28.6 4 10.5 2.8 22-.6 32.5-2.8 8.6-13 21-9.2 30.4-1.5-.4-33.1-10.2-41.9-15.8-14.1-8.8-26.8-19.6-36.3-28l-.3-.3-32.1-15.2c-.4-.2-.8-.4-1.1-.6 4.6 0 22.1 2.1 29.9.4z" fill="#fdd321"/></g><path d="M110.9 73.7c-.9 0-1.7-.2-2.3-.5-1.6-.7-2.8-2-3.6-4-1.4-3.4-1-8.1.9-12.5 2.5-5.7 7.2-9.7 11.5-9.7.8 0 1.6.2 2.4.5 2.1.9 3.6 3 4.1 6 .6 3.2.1 6.9-1.5 10.4-2.5 5.7-7.3 9.8-11.5 9.8z" fill="#fff"/><path d="M117.3 48.6c.6 0 1.2.1 1.8.4 1.6.7 2.8 2.5 3.2 4.9.5 2.9.1 6.3-1.4 9.5-2.2 5.1-6.5 8.8-10.1 8.8-.6 0-1.2-.1-1.7-.3-1.5-.6-2.3-2-2.7-3.1-1.2-3-.9-7.4.8-11.4 2.3-5.1 6.5-8.8 10.1-8.8zm0-3c-4.8 0-10.1 4.4-12.9 10.7-2.1 4.7-2.4 9.8-.9 13.7.9 2.3 2.4 3.9 4.3 4.8.9.4 1.9.6 3 .6 4.8 0 10.1-4.4 12.8-10.7 1.7-3.8 2.2-7.8 1.6-11.3s-2.4-6-5-7.1c-.8-.5-1.8-.7-2.9-.7z" fill="#1d2a3a"/></svg>

<svg width='253' height='253' viewBox='0 0 253 253' fill='none' xmlns='http://www.w3.org/2000/svg'><path fill-rule='evenodd' clip-rule='evenodd' d='M0 126.3C0 196.1 56.6 252.6 126.3 252.6C196 252.6 252.6 196.1 252.6 126.3C252.6 56.5 196.1 0 126.3 0C56.5 0 0 56.5 0 126.3Z' fill='#192E45'/><path fill-rule='evenodd' clip-rule='evenodd' d='M16.9 111.2L26.5 97.8C26.5 97.9 25.9 117.1 25.9 117.1L28.6 102.6C36.6 118.8 56.2 141.2 74.1 153.2C76 154.5 77.6 155.9 78.7 157.3C81 158.2 83.3 158.7 85.6 159.1C86.8 159.3 88.1 159.4 89.3 159.5C90.5 159.6 91.8 159.6 93 159.6C94.2 159.6 95.4 159.5 96.6 159.4C97.8 159.3 99 159.1 100.2 158.9C101.4 158.7 102.6 158.5 103.7 158.1C104.9 157.8 106 157.5 107.2 157.1C108.3 156.8 109.5 156.3 110.6 155.9C111.7 155.4 112.8 155 113.9 154.4C115 153.8 116.1 153.3 117.1 152.7C118.2 152.2 119.2 151.5 120.3 150.9C121.4 150.3 122.4 149.6 123.5 149C124.6 148.4 125.6 147.7 126.6 147.1C127.6 146.4 128.7 145.8 129.7 145.1C130.7 144.4 131.8 143.8 132.9 143.1L133.9 142.5L134.4 142.8L141.6 147.6L134.3 145.7C133.6 146.5 132.9 147.3 132.1 148.1C131.2 149 130.2 149.9 129.3 150.8C128.3 151.6 127.3 152.5 126.2 153.2C125.1 154 124.1 154.7 122.9 155.4C120.7 156.8 118.3 158 115.8 159C114.6 159.5 113.3 160 112.1 160.4C110.8 160.8 109.6 161.2 108.3 161.5C107 161.8 105.7 162.1 104.4 162.3C103.1 162.5 101.8 162.6 100.5 162.8C97.9 162.9 95.2 162.9 92.6 162.5C91.3 162.3 90 162.1 88.7 161.8C87.4 161.5 86.2 161.1 85 160.7C82.9 159.9 80.8 158.9 78.9 157.7C78.9 157.7 72 158.7 74.8 163.9C77.6 169.1 81.8 168.6 79.8 174.7C78.4 178 76.4 181.2 74.2 184.2C69.6 190.4 62.4 195.9 63.1 199.2C95.8 239.5 169.5 233.9 197.5 197.9C197.1 192.7 188.9 190.2 183.2 177.5C184.8 178 187.2 178.7 187.2 178.6C187.2 178.5 180.4 167.5 180.1 166.4L184.5 166.7C184.5 166.7 178.7 159.5 178.5 158.8L184.4 158C184.4 158 177 149.5 176.9 148.8L184.4 150L176.2 140.1H180.1L175.5 133.4C174.7 133.1 173.9 132.9 173.1 132.7L170.1 131.8C158.9 128.3 148.3 125.1 138.1 118.7C123.8 109.8 111 98.9 101.4 90.4L82.1 81C63.6 79.6 46.2 80.1 35.6 82.2L42.4 70.6L32 83.1C31.3 82.9 31.1 82.5 31.1 82.5L31.8 67.1L28.5 81C27.5 80.5 26.3 80.3 25.1 80.3C20.5 80.3 16.8 84 16.8 88.6C16.8 92.8 19.9 96.3 24 96.8L16.9 111.2Z' fill='#D0933A'/><path fill-rule='evenodd' clip-rule='evenodd' d='M28.5 80.8C27.5 80.4 26.3 80.1 25.2 80.1C20.6 80.1 16.9 83.8 16.9 88.4C16.9 92.4 19.8 95.8 23.6 96.6H23.8C26.3 95.8 31.3 89.1 30.5 84.9C30.2 83.4 29.5 82 28.5 80.8Z' fill='#FFCC86'/><path fill-rule='evenodd' clip-rule='evenodd' d='M101.4 70.1C99.9 66 100.3 60.7 102.4 55.7C105.4 48.8 111.1 44.2 116.5 44.2C117.6 44.2 118.6 44.4 119.6 44.8C122.7 42 126.3 39.7 130.3 38.1C152.4 29.3 184.7 45 193 66.7C197 77.2 195.8 88.7 192.4 99.2C189.6 107.8 179.4 120.2 183.2 129.6C181.7 129.2 150.1 119.4 141.3 113.8C127.2 105 114.5 94.2 105 85.8L104.7 85.5L72.6 70.3C72.2 70.1 71.8 69.9 71.5 69.7C76.1 69.7 93.6 71.8 101.4 70.1Z' fill='#FDD321'/><path d='M110.9 73.7C110 73.7 109.2 73.5 108.6 73.2C107 72.5 105.8 71.2 105 69.2C103.6 65.8 104 61.1 105.9 56.7C108.4 51 113.1 47 117.4 47C118.2 47 119 47.2 119.8 47.5C121.9 48.4 123.4 50.5 123.9 53.5C124.5 56.7 124 60.4 122.4 63.9C119.9 69.6 115.1 73.7 110.9 73.7Z' fill='white'/><path d='M117.3 48.6C117.9 48.6 118.5 48.7 119.1 49C120.7 49.7 121.9 51.5 122.3 53.9C122.8 56.8 122.4 60.2 120.9 63.4C118.7 68.5 114.4 72.2 110.8 72.2C110.2 72.2 109.6 72.1 109.1 71.9C107.6 71.3 106.8 69.9 106.4 68.8C105.2 65.8 105.5 61.4 107.2 57.4C109.5 52.3 113.7 48.6 117.3 48.6ZM117.3 45.6C112.5 45.6 107.2 50 104.4 56.3C102.3 61 102 66.1 103.5 70C104.4 72.3 105.9 73.9 107.8 74.8C108.7 75.2 109.7 75.4 110.8 75.4C115.6 75.4 120.9 71 123.6 64.7C125.3 60.9 125.8 56.9 125.2 53.4C124.6 49.9 122.8 47.4 120.2 46.3C119.4 45.8 118.4 45.6 117.3 45.6Z' fill='#1D2A3A'/></svg>
